X: 33042
T: Pride Of Petravore, The
R: hornpipe
M: 4/4
K: Eminor
B,2|:E3F G3A|B>cBA G2E2|D3E F3G|AFDF AB/A/GF|
E3F G3A|B>cBA GFGA|B2Bc B>AG>F|1 E2 F/E/D E2B,D:|2 E2 F/E/D E2 B/c/d||
|:e2 ee/e/ e2f>e|d>BG>A B2Bc|B>AFG A2AB|A>GFD E2 B/c/d|
e2 ee/e/ e2g>e|d>BG>A B2GA|B2Bc B>AG>F|1 E2 F/E/D E2 B/c/d:|2 E2 F/E/D E2 B,D||

